public/images/tokens/dpx-weth.svg

<svg width="41" height="40" viewBox="0 0 41 40" fill="none" xmlns="http://www.w3.org/2000/svg">
<mask id="mask0_838_43362" style="mask-type:alpha" maskUnits="userSpaceOnUse" x="11" y="10" width="30" height="30">
<path fill-rule="evenodd" clip-rule="evenodd" d="M14.6667 30C23.5032 30 30.6667 22.8366 30.6667 14C30.6667 12.8831 30.5522 11.7929 30.3344 10.7405C36.3333 12.7029 40.6667 18.3454 40.6667 25C40.6667 33.2843 33.951 40 25.6667 40C19.0121 40 13.3696 35.6666 11.4072 29.6677C12.4595 29.8855 13.5498 30 14.6667 30Z" fill="#C4C4C4"/>
</mask>
<g mask="url(#mask0_838_43362)">
<circle cx="26.6667" cy="26" r="14" fill="black"/>
<circle cx="26.6667" cy="26" r="13.5" stroke="white" stroke-opacity="0.2"/>
<path fill-rule="evenodd" clip-rule="evenodd" d="M26.6557 31.4867L33.1282 27.4286L26.6557 36.7692V31.4867ZM27.6181 32.0149V33.7028L29.6908 30.7128L27.6181 32.0149Z" fill="#5A9DED"/>
<path fill-rule="evenodd" clip-rule="evenodd" d="M27.3181 23.0559L32.0962 25.7563L31.6249 26.5884L26.8468 23.888L27.3181 23.0559Z" fill="#D895D3"/>
<path fill-rule="evenodd" clip-rule="evenodd" d="M26.6557 15.2308L33.1063 26.3213L26.6557 30.3853V15.2308ZM27.6069 18.78V28.6621L31.8199 26.0078L27.6069 18.78Z" fill="#FF9C92"/>
<path fill-rule="evenodd" clip-rule="evenodd" d="M26.6776 31.4867L20.2051 27.4286L26.6776 36.7692V31.4867ZM25.7152 32.0149V33.7028L23.6425 30.7128L25.7152 32.0149Z" fill="#53D3E0"/>
<path fill-rule="evenodd" clip-rule="evenodd" d="M25.8139 23.146L21.0358 25.8464L21.5072 26.6785L26.2853 23.9782L25.8139 23.146Z" fill="#A6E275"/>
<path fill-rule="evenodd" clip-rule="evenodd" d="M26.6557 15.2308L20.2051 26.3213L26.6557 30.3853V15.2308ZM25.7044 18.78V28.6621L21.4915 26.0078L25.7044 18.78Z" fill="#FFE94D"/>
</g>
<circle cx="14.6667" cy="14" r="14" fill="black"/>
<circle cx="14.6667" cy="14" r="13.5" stroke="white" stroke-opacity="0.2"/>
<path fill-rule="evenodd" clip-rule="evenodd" d="M8.48024 10.8187L11.9246 5.44739L6.78994 10.582C6.36272 11.0092 6.56371 11.7391 7.14942 11.8874L9.87097 12.5764C9.62795 12.9584 9.35277 13.44 9.13889 13.9506C8.94295 14.4183 8.77957 14.9538 8.76339 15.4841C8.74681 16.0272 8.8861 16.6091 9.34535 17.0684C10.0354 17.7584 10.5365 17.9991 10.9367 18.1914L11.0243 18.2336C11.2105 18.324 11.348 18.3983 11.494 18.5149C11.6413 18.6327 11.8202 18.8127 12.05 19.1286C12.0909 19.1848 12.1342 19.2449 12.1799 19.3084C12.6809 20.0036 13.4672 21.0948 14.4819 21.819C15.0481 22.2232 15.7201 22.5407 16.4885 22.6028C17.2668 22.6658 18.0797 22.4613 18.9069 21.9285C19.6993 21.4182 20.2215 20.8497 20.4671 20.1875C20.7145 19.5207 20.6412 18.8672 20.4613 18.2745C20.2965 17.7316 20.0215 17.178 19.7648 16.6612L19.7164 16.5637C19.4356 15.9977 19.1708 15.4506 18.9945 14.8777C18.6504 13.7594 18.8838 13.2749 19.0306 13.083C19.1166 12.9704 19.2158 12.901 19.2929 12.86C19.3311 12.8397 19.3617 12.8276 19.3785 12.8216L19.3876 12.8185L19.4037 12.8147L19.4314 12.8056L19.4316 12.8056L19.5533 12.7656L19.8743 12.66C20.1401 12.5724 20.4953 12.4551 20.8521 12.3361C21.2085 12.2173 21.5685 12.0963 21.8433 12.0016C21.9801 11.9545 22.0992 11.9127 22.1873 11.8805C22.2304 11.8647 22.2717 11.8492 22.3058 11.8354C22.3219 11.8289 22.3443 11.8196 22.3675 11.8087C22.3786 11.8035 22.3982 11.794 22.421 11.7812L22.4221 11.7806C22.4325 11.7748 22.5031 11.7358 22.5723 11.6666C22.8489 11.39 22.7604 11.0509 22.7513 11.0161L22.7509 11.0144C22.7297 10.9314 22.6974 10.8715 22.6872 10.8528C22.6616 10.8058 22.635 10.7701 22.6258 10.7578C22.6018 10.7257 22.5751 10.6943 22.5549 10.671C22.5108 10.6202 22.4502 10.5542 22.3801 10.4793C22.296 10.3896 20.6633 8.73569 19.2917 7.34622C18.342 6.38418 17.5175 5.54892 17.4187 5.44739C17.4304 5.4594 18.3088 6.84142 19.1783 8.20941C20.0303 9.54988 20.8737 10.8769 20.8847 10.8883C20.7353 10.9386 20.5783 10.9911 20.4212 11.0434C20.0664 11.1617 19.7128 11.2786 19.4479 11.3659L19.1281 11.4711L19.0253 11.5048L19.0107 11.509C18.9867 11.516 18.9564 11.5255 18.921 11.5381C18.8504 11.5633 18.7577 11.6013 18.653 11.657C18.4442 11.7681 18.1784 11.9542 17.9482 12.2553C17.4622 12.8907 17.2577 13.8662 17.6922 15.2784C17.9052 15.9708 18.2183 16.6099 18.4957 17.1692L18.5228 17.2239C18.7989 17.7803 19.0267 18.2396 19.1575 18.6703C19.2878 19.0995 19.2966 19.4253 19.1896 19.7136C19.081 20.0065 18.8124 20.3687 18.1691 20.783C17.5608 21.1748 17.042 21.2805 16.5983 21.2447C16.1447 21.208 15.7043 21.0175 15.2735 20.71C14.4521 20.1236 13.793 19.2128 13.2736 18.4949C13.2321 18.4377 13.1916 18.3817 13.152 18.3271C12.8685 17.9374 12.6083 17.6612 12.3447 17.4505C12.0796 17.2386 11.8341 17.1121 11.6194 17.0079C11.5885 16.9928 11.5578 16.9781 11.5272 16.9634L11.527 16.9634C11.1745 16.7942 10.8357 16.6317 10.3089 16.1049C10.1874 15.9835 10.1167 15.8089 10.1254 15.5257C10.1344 15.2298 10.2314 14.8691 10.3957 14.4771C10.723 13.6957 11.2425 12.9619 11.4499 12.6847C11.7886 12.2321 11.5475 11.5952 11.016 11.4607L8.48024 10.8187ZM14.2244 16.3895C14.2244 16.3895 13.1743 16.3895 12.4742 15.7453C11.7742 15.1012 12.4742 13.8129 12.4742 13.8129C12.4742 13.8129 12.6784 13.9417 13.4514 14.8435C14.2244 15.7453 14.2244 16.3895 14.2244 16.3895Z" fill="url(#paint0_linear_838_43362)"/>
<defs>
<linearGradient id="paint0_linear_838_43362" x1="14.6935" y1="13.1801" x2="14.6666" y2="22.6138" gradientUnits="userSpaceOnUse">
<stop stop-color="#22E1FF"/>
<stop offset="1" stop-color="#002EFF"/>
</linearGradient>
</defs>
</svg>

<svg fill="none" xmlns="http://www.w3.org/2000/svg" viewBox="0 0 41 40"><mask id="a" style="mask-type:alpha" maskUnits="userSpaceOnUse" x="11" y="10" width="30" height="30"><path fill-rule="evenodd" clip-rule="evenodd" d="M14.667 30c8.836 0 16-7.163 16-16a16.07 16.07 0 0 0-.333-3.26c6 1.963 10.333 7.605 10.333 14.26 0 8.284-6.716 15-15 15-6.655 0-12.297-4.333-14.26-10.332a16.07 16.07 0 0 0 3.26.332Z" fill="#C4C4C4"/></mask><g mask="url(#a)"><circle cx="26.667" cy="26" r="14" fill="#000"/><circle cx="26.667" cy="26" r="13.5" stroke="#fff" stroke-opacity=".2"/><path fill-rule="evenodd" clip-rule="evenodd" d="m26.656 31.487 6.472-4.058-6.472 9.34v-5.282Zm.962.528v1.688l2.073-2.99-2.073 1.302Z" fill="#5A9DED"/><path fill-rule="evenodd" clip-rule="evenodd" d="m27.318 23.056 4.778 2.7-.471.832-4.778-2.7.471-.832Z" fill="#D895D3"/><path fill-rule="evenodd" clip-rule="evenodd" d="m26.656 15.23 6.45 11.091-6.45 4.064V15.231Zm.95 3.55v9.882l4.214-2.654-4.213-7.228Z" fill="#FF9C92"/><path fill-rule="evenodd" clip-rule="evenodd" d="m26.678 31.487-6.473-4.058 6.473 9.34v-5.282Zm-.963.528v1.688l-2.073-2.99 2.073 1.302Z" fill="#53D3E0"/><path fill-rule="evenodd" clip-rule="evenodd" d="m25.814 23.146-4.778 2.7.471.832 4.778-2.7-.471-.832Z" fill="#A6E275"/><path fill-rule="evenodd" clip-rule="evenodd" d="m26.656 15.23-6.45 11.091 6.45 4.064V15.231Zm-.952 3.55v9.882l-4.213-2.654 4.213-7.228Z" fill="#FFE94D"/></g><circle cx="14.667" cy="14" r="14" fill="#000"/><circle cx="14.667" cy="14" r="13.5" stroke="#fff" stroke-opacity=".2"/><path fill-rule="evenodd" clip-rule="evenodd" d="m8.48 10.819 3.445-5.372-5.135 5.135a.779.779 0 0 0 .36 1.305l2.721.69a9.371 9.371 0 0 0-.732 1.374c-.196.467-.36 1.003-.376 1.533-.016.543.123 1.125.582 1.584.69.69 1.191.931 1.592 1.123l.087.043c.187.09.324.164.47.28.147.119.326.299.556.615l.13.18c.5.695 1.287 1.786 2.302 2.51.566.404 1.238.722 2.006.784.779.063 1.592-.142 2.419-.675.792-.51 1.314-1.078 1.56-1.74.248-.667.174-1.32-.006-1.913-.164-.543-.44-1.097-.696-1.614l-.049-.097c-.28-.566-.545-1.113-.722-1.686-.344-1.119-.11-1.603.037-1.795a.808.808 0 0 1 .348-.261l.009-.003.016-.004.027-.01.122-.04.321-.105a295.196 295.196 0 0 0 1.97-.658 20.715 20.715 0 0 0 .462-.167 1.226 1.226 0 0 0 .115-.054h.001c.01-.006.081-.045.15-.114a.683.683 0 0 0 .18-.65l-.001-.003a.7.7 0 0 0-.125-.256 1.59 1.59 0 0 0-.071-.087 7.466 7.466 0 0 0-.175-.192c-.084-.09-1.717-1.743-3.088-3.133-.95-.962-1.775-1.797-1.873-1.899.011.012.89 1.394 1.76 2.762.851 1.34 1.695 2.668 1.706 2.68a145.598 145.598 0 0 1-1.437.477l-.32.105-.103.034-.014.004a2.017 2.017 0 0 0-.358.148 2.172 2.172 0 0 0-.705.598c-.486.636-.69 1.611-.256 3.023.213.693.526 1.332.804 1.891l.027.055c.276.556.504 1.016.634 1.446.13.43.14.755.033 1.044-.109.293-.378.655-1.02 1.069-.61.392-1.128.497-1.572.462-.453-.037-.894-.228-1.324-.535-.822-.586-1.481-1.497-2-2.215l-.122-.168a4.423 4.423 0 0 0-.807-.877 3.648 3.648 0 0 0-.726-.442l-.092-.045c-.352-.169-.691-.331-1.218-.858-.122-.122-.192-.296-.184-.58.01-.295.106-.656.27-1.048.328-.781.848-1.515 1.055-1.792a.78.78 0 0 0-.434-1.224l-2.536-.642Zm5.744 5.57s-1.05 0-1.75-.644 0-1.932 0-1.932.204.129.977 1.03c.773.902.773 1.547.773 1.547Z" fill="url(#b)"/><defs><linearGradient id="b" x1="14.694" y1="13.18" x2="14.667" y2="22.614" gradientUnits="userSpaceOnUse"><stop stop-color="#22E1FF"/><stop offset="1" stop-color="#002EFF"/></linearGradient></defs></svg>
